X:172
T:Who will dandle my Mary
T:Co a ni mire ri M\`airi
R:Slow Air
S:Simon Fraser Collection
N:No.175
O:Scottish
M:9/8
L:1/8
Q:3/8=90
K:G
G>AB BGB BGd|G>AB BGB (d2e)|G>AB BGB BGd|B<AG GDG (A2B):|
g>fe dec Bcd|g>fe dec (B2d)|g>fe dec Bcd|B<AG GDG (A2B)|
g>fe dec Bcd|g>fe dec (B2d)|gba gfe dcB|B<AG GDG (A2B)||

